documentation/public/assets/images/06-tabs-dont.svg

<svg width="264" height="128" viewBox="0 0 264 128" fill="none" xmlns="http://www.w3.org/2000/svg">
<rect width="89" height="44" fill="white"/>
<line y1="43.5" x2="89" y2="43.5" stroke="#EBEBEB"/>
<path d="M17.1477 28V16.3636H24.7159V18.1307H19.2557V21.2898H24.3239V23.0568H19.2557V26.233H24.7614V28H17.1477ZM28.8324 22.8864V28H26.7756V19.2727H28.7415V20.7557H28.8438C29.0445 20.267 29.3646 19.8788 29.804 19.5909C30.2472 19.303 30.7945 19.1591 31.446 19.1591C32.0483 19.1591 32.5729 19.2879 33.0199 19.5455C33.4706 19.803 33.8191 20.1761 34.0653 20.6648C34.3153 21.1534 34.4384 21.7462 34.4347 22.4432V28H32.3778V22.7614C32.3778 22.178 32.2263 21.7216 31.9233 21.392C31.6241 21.0625 31.2093 20.8977 30.679 20.8977C30.3191 20.8977 29.9991 20.9773 29.7188 21.1364C29.4422 21.2917 29.2244 21.517 29.0653 21.8125C28.91 22.108 28.8324 22.4659 28.8324 22.8864ZM40.321 31.4545C39.5824 31.4545 38.9479 31.3542 38.4176 31.1534C37.8873 30.9564 37.4612 30.6913 37.1392 30.358C36.8172 30.0246 36.5938 29.6553 36.4688 29.25L38.321 28.8011C38.4044 28.9716 38.5256 29.1402 38.6847 29.3068C38.8438 29.4773 39.0578 29.6174 39.3267 29.7273C39.5994 29.8409 39.9422 29.8977 40.3551 29.8977C40.9384 29.8977 41.4214 29.7557 41.804 29.4716C42.1866 29.1913 42.3778 28.7292 42.3778 28.0852V26.4318H42.2756C42.1695 26.6439 42.0142 26.8617 41.8097 27.0852C41.6089 27.3087 41.3419 27.4962 41.0085 27.6477C40.679 27.7992 40.2642 27.875 39.7642 27.875C39.0938 27.875 38.4858 27.7178 37.9403 27.4034C37.3987 27.0852 36.9669 26.6117 36.6449 25.983C36.3267 25.3504 36.1676 24.5587 36.1676 23.608C36.1676 22.6496 36.3267 21.8409 36.6449 21.1818C36.9669 20.5189 37.4006 20.017 37.946 19.6761C38.4915 19.3314 39.0994 19.1591 39.7699 19.1591C40.2813 19.1591 40.7017 19.2462 41.0312 19.4205C41.3646 19.5909 41.6297 19.7973 41.8267 20.0398C42.0237 20.2784 42.1733 20.5038 42.2756 20.7159H42.3892V19.2727H44.4176V28.142C44.4176 28.8883 44.2396 29.5057 43.8835 29.9943C43.5275 30.483 43.0407 30.8485 42.4233 31.0909C41.8059 31.3333 41.1051 31.4545 40.321 31.4545ZM40.3381 26.2614C40.7737 26.2614 41.1449 26.1553 41.4517 25.9432C41.7585 25.7311 41.9915 25.4261 42.1506 25.0284C42.3097 24.6307 42.3892 24.1534 42.3892 23.5966C42.3892 23.0473 42.3097 22.5663 42.1506 22.1534C41.9953 21.7405 41.7642 21.4205 41.4574 21.1932C41.1544 20.9621 40.7813 20.8466 40.3381 20.8466C39.8797 20.8466 39.4972 20.9659 39.1903 21.2045C38.8835 21.4432 38.6525 21.7708 38.4972 22.1875C38.3419 22.6004 38.2642 23.0701 38.2642 23.5966C38.2642 24.1307 38.3419 24.5985 38.4972 25C38.6563 25.3977 38.8892 25.7083 39.196 25.9318C39.5066 26.1515 39.8873 26.2614 40.3381 26.2614ZM48.5824 16.3636V28H46.5256V16.3636H48.5824ZM50.6974 28V19.2727H52.7543V28H50.6974ZM51.7315 18.0341C51.4058 18.0341 51.1255 17.9261 50.8906 17.7102C50.6558 17.4905 50.5384 17.2273 50.5384 16.9205C50.5384 16.6098 50.6558 16.3466 50.8906 16.1307C51.1255 15.911 51.4058 15.8011 51.7315 15.8011C52.0611 15.8011 52.3414 15.911 52.5724 16.1307C52.8073 16.3466 52.9247 16.6098 52.9247 16.9205C52.9247 17.2273 52.8073 17.4905 52.5724 17.7102C52.3414 17.9261 52.0611 18.0341 51.7315 18.0341ZM61.767 21.5795L59.892 21.7841C59.839 21.5947 59.7462 21.4167 59.6136 21.25C59.4848 21.0833 59.3106 20.9489 59.0909 20.8466C58.8712 20.7443 58.6023 20.6932 58.2841 20.6932C57.8561 20.6932 57.4962 20.786 57.2045 20.9716C56.9167 21.1572 56.7746 21.3977 56.7784 21.6932C56.7746 21.947 56.8674 22.1534 57.0568 22.3125C57.25 22.4716 57.5682 22.6023 58.0114 22.7045L59.5 23.0227C60.3258 23.2008 60.9394 23.483 61.3409 23.8693C61.7462 24.2557 61.9508 24.7614 61.9545 25.3864C61.9508 25.9356 61.7898 26.4205 61.4716 26.8409C61.1572 27.2576 60.7197 27.5833 60.1591 27.8182C59.5985 28.053 58.9545 28.1705 58.2273 28.1705C57.1591 28.1705 56.2992 27.947 55.6477 27.5C54.9962 27.0492 54.608 26.4223 54.483 25.6193L56.4886 25.4261C56.5795 25.8201 56.7727 26.1174 57.0682 26.3182C57.3636 26.5189 57.7481 26.6193 58.2216 26.6193C58.7102 26.6193 59.1023 26.5189 59.3977 26.3182C59.697 26.1174 59.8466 25.8693 59.8466 25.5739C59.8466 25.3239 59.75 25.1174 59.5568 24.9545C59.3674 24.7917 59.072 24.6667 58.6705 24.5795L57.1818 24.267C56.3447 24.0928 55.7254 23.7992 55.3239 23.3864C54.9223 22.9697 54.7235 22.4432 54.7273 21.8068C54.7235 21.2689 54.8693 20.803 55.1648 20.4091C55.464 20.0114 55.8788 19.7045 56.4091 19.4886C56.9432 19.2689 57.5587 19.1591 58.2557 19.1591C59.2784 19.1591 60.0833 19.3769 60.6705 19.8125C61.2614 20.2481 61.6269 20.8371 61.767 21.5795ZM65.7074 22.8864V28H63.6506V16.3636H65.6619V20.7557H65.7642C65.9688 20.2633 66.285 19.875 66.7131 19.5909C67.1449 19.303 67.6941 19.1591 68.3608 19.1591C68.9669 19.1591 69.4953 19.286 69.946 19.5398C70.3968 19.7936 70.7453 20.1648 70.9915 20.6534C71.2415 21.142 71.3665 21.7386 71.3665 22.4432V28H69.3097V22.7614C69.3097 22.1742 69.1581 21.7178 68.8551 21.392C68.5559 21.0625 68.1354 20.8977 67.5938 20.8977C67.2301 20.8977 66.9044 20.9773 66.6165 21.1364C66.3324 21.2917 66.1089 21.517 65.946 21.8125C65.7869 22.108 65.7074 22.4659 65.7074 22.8864Z" fill="#0F67F5"/>
<line x1="8.74228e-08" y1="43" x2="89" y2="43" stroke="#0F67F5" stroke-width="2"/>
<rect width="264" height="76" transform="translate(0 52)" fill="white"/>
<rect x="12" y="64" width="99" height="12" fill="#EBEBEB"/>
<rect x="12" y="84" width="240" height="12" fill="#EBEBEB"/>
<rect x="12" y="104" width="240" height="12" fill="#EBEBEB"/>
</svg>

<svg width="264" height="128" fill="none" xmlns="http://www.w3.org/2000/svg"><path fill="#fff" d="M0 0h89v44H0z"/><path stroke="#EBEBEB" d="M0 43.5h89"/><path d="M17.15 28V16.36h7.57v1.77h-5.46v3.16h5.06v1.77h-5.06v3.17h5.5V28h-7.61Zm11.68-5.11V28h-2.05v-8.73h1.96v1.49h.1c.2-.5.52-.88.96-1.17.45-.29 1-.43 1.65-.43.6 0 1.12.13 1.57.39.45.25.8.63 1.05 1.11.25.5.37 1.09.36 1.78V28h-2.05v-5.24c0-.58-.15-1.04-.46-1.37a1.6 1.6 0 0 0-1.24-.5c-.36 0-.68.09-.96.25-.28.15-.5.38-.65.67-.16.3-.24.66-.24 1.08Zm11.5 8.56a5.4 5.4 0 0 1-1.91-.3c-.53-.2-.96-.46-1.28-.8a2.7 2.7 0 0 1-.67-1.1l1.85-.45c.08.17.2.34.36.5.16.18.38.32.65.43.27.11.61.17 1.03.17a2.3 2.3 0 0 0 1.44-.43c.39-.28.58-.74.58-1.38v-1.66h-.1a2.59 2.59 0 0 1-2.52 1.45 3.38 3.38 0 0 1-3.12-1.9 5.26 5.26 0 0 1-.47-2.37c0-.96.16-1.77.47-2.43a3.34 3.34 0 0 1 4.39-1.76c.33.17.6.38.8.62.2.24.34.46.45.68h.1v-1.45h2.04v8.87a3 3 0 0 1-.54 1.85 3.2 3.2 0 0 1-1.46 1.1 5.7 5.7 0 0 1-2.1.36Zm0-5.19c.44 0 .81-.1 1.12-.32.3-.2.54-.51.7-.91.16-.4.24-.88.24-1.43a4 4 0 0 0-.24-1.45 2.06 2.06 0 0 0-.7-.96 1.8 1.8 0 0 0-1.11-.34c-.46 0-.84.12-1.15.35-.3.24-.54.57-.7.99-.15.41-.23.88-.23 1.4 0 .54.08 1 .24 1.41.16.4.39.7.7.93.3.22.69.33 1.14.33Zm8.25-9.9V28h-2.05V16.36h2.05ZM50.7 28v-8.73h2.05V28H50.7Zm1.03-9.97c-.32 0-.6-.1-.84-.32a1.04 1.04 0 0 1-.35-.79c0-.31.12-.57.35-.79.24-.22.52-.33.84-.33.33 0 .61.11.84.33.24.22.35.48.35.8 0 .3-.11.56-.35.78-.23.22-.5.32-.84.32Zm10.04 3.55-1.88.2a1.5 1.5 0 0 0-.8-.93 1.9 1.9 0 0 0-.8-.16c-.43 0-.8.1-1.09.28-.28.19-.43.43-.42.72 0 .26.09.46.28.62.19.16.5.3.95.4l1.49.31c.83.18 1.44.46 1.84.85.4.39.61.9.61 1.52 0 .55-.16 1.03-.48 1.45a3.1 3.1 0 0 1-1.31.98c-.56.23-1.2.35-1.93.35a4.48 4.48 0 0 1-2.58-.67 2.7 2.7 0 0 1-1.17-1.88l2-.2c.1.4.3.7.59.9.3.2.68.3 1.15.3.49 0 .88-.1 1.18-.3.3-.2.45-.45.45-.75 0-.25-.1-.45-.3-.62a2.02 2.02 0 0 0-.88-.37l-1.49-.31a3.54 3.54 0 0 1-1.86-.88 2.2 2.2 0 0 1-.6-1.58c0-.54.15-1 .44-1.4.3-.4.72-.7 1.25-.92a4.82 4.82 0 0 1 1.85-.33 4 4 0 0 1 2.41.65c.6.44.96 1.03 1.1 1.77Zm3.94 1.3V28h-2.06V16.36h2.01v4.4h.1c.2-.5.52-.89.95-1.17a2.9 2.9 0 0 1 1.65-.43c.6 0 1.14.13 1.59.38.45.25.8.62 1.04 1.11.25.5.38 1.09.38 1.8V28H69.3v-5.24c0-.59-.15-1.04-.45-1.37-.3-.33-.72-.5-1.27-.5-.36 0-.69.09-.97.25a1.6 1.6 0 0 0-.67.67c-.16.3-.24.66-.24 1.08Z" fill="#0F67F5"/><path stroke="#0F67F5" stroke-width="2" d="M0 43h89"/><path fill="#fff" d="M0 52h264v76H0z"/><path fill="#EBEBEB" d="M12 64h99v12H12zm0 20h240v12H12zm0 20h240v12H12z"/></svg>
